modules/hawcons-filled/icons/icon-86-document-file-php.svg

<?xml version="1.0" encoding="UTF-8" standalone="no"?>
<svg width="32px" height="32px" viewBox="0 0 32 32" version="1.1" xmlns="http://www.w3.org/2000/svg" xmlns:xlink="http://www.w3.org/1999/xlink" xmlns:sketch="http://www.bohemiancoding.com/sketch/ns">
    <!-- Generator: Sketch 3.0.3 (7891) - http://www.bohemiancoding.com/sketch -->
    <title>icon 86 document file php</title>
    <desc>Created with Sketch.</desc>
    <defs></defs>
    <g id="Page-1" stroke="none" stroke-width="1" fill="none" fill-rule="evenodd" sketch:type="MSPage">
        <g id="icon-86-document-file-php" sketch:type="MSArtboardGroup" fill="#929292">
            <path d="M21,26 L21,28.0025781 C21,29.1090746 20.1057238,30 19.0025781,30 L3.99742191,30 C2.89092539,30 2,29.1012878 2,27.9926701 L2,5.00732994 C2,3.89833832 2.8992496,3 4.0085302,3 L14,3 L14,9.00189865 C14,10.1132936 14.8980806,11 16.0059191,11 L21,11 L21,13 L12.0068483,13 C10.3462119,13 9,14.3422643 9,15.9987856 L9,23.0012144 C9,24.6573979 10.3359915,26 12.0068483,26 L21,26 L21,26 Z M15,3 L15,8.99707067 C15,9.55097324 15.4509752,10 15.990778,10 L21,10 L15,3 L15,3 Z M11.9945615,14 C10.8929956,14 10,14.9001762 10,15.992017 L10,23.007983 C10,24.1081436 10.9023438,25 11.9945615,25 L29.0054385,25 C30.1070044,25 31,24.0998238 31,23.007983 L31,15.992017 C31,14.8918564 30.0976562,14 29.0054385,14 L11.9945615,14 L11.9945615,14 Z M12,18 L12,23 L13,23 L13,20 L14.9951185,20 C16.102384,20 17,19.1122704 17,18 C17,16.8954305 16.1061002,16 14.9951185,16 L12,16 L12,18 L12,18 Z M13,17 L13,19 L15.0010434,19 C15.5527519,19 16,18.5561352 16,18 C16,17.4477153 15.5573397,17 15.0010434,17 L13,17 L13,17 Z M22,19 L22,16 L23,16 L23,23 L22,23 L22,20 L19,20 L19,23 L18,23 L18,16 L19,16 L19,19 L22,19 L22,19 Z M24,18 L24,23 L25,23 L25,20 L26.9951185,20 C28.102384,20 29,19.1122704 29,18 C29,16.8954305 28.1061002,16 26.9951185,16 L24,16 L24,18 L24,18 Z M25,17 L25,19 L27.0010434,19 C27.5527519,19 28,18.5561352 28,18 C28,17.4477153 27.5573397,17 27.0010434,17 L25,17 L25,17 Z" id="document-file-php" sketch:type="MSShapeGroup"></path>
        </g>
    </g>
</svg>

<svg width="32" height="32" xmlns="http://www.w3.org/2000/svg"><path d="M21 26v2.003A1.995 1.995 0 0 1 19.003 30H3.997A2 2 0 0 1 2 27.993V5.007C2 3.898 2.9 3 4.009 3H14v6.002c0 1.111.898 1.998 2.006 1.998H21v2h-8.993A3.003 3.003 0 0 0 9 15.999V23A2.996 2.996 0 0 0 12.007 26H21zM15 3v5.997c0 .554.451 1.003.99 1.003H21l-6-7zm-3.005 11C10.893 14 10 14.9 10 15.992v7.016A2 2 0 0 0 11.995 25h17.01C30.107 25 31 24.1 31 23.008v-7.016A2 2 0 0 0 29.005 14h-17.01zM12 18v5h1v-3h1.995a2 2 0 0 0 0-4H12v2zm1-1v2h2.001A.997.997 0 0 0 16 18c0-.552-.443-1-.999-1H13zm9 2v-3h1v7h-1v-3h-3v3h-1v-7h1v3h3zm2-1v5h1v-3h1.995a2 2 0 0 0 0-4H24v2zm1-1v2h2.001A.997.997 0 0 0 28 18c0-.552-.443-1-.999-1H25z" fill="#929292" fill-rule="evenodd"/></svg>
